X:1
T:Saved to the Uttermost
T:Saved to the Uttermost
T:William James Kirkpatrick
T:William James Kirkpatrick, 1875
T:Public Domain Courtesy of the Cyber Hymnal™
T:Public Domain Courtesy of the Cyber Hymnal™
C:William James Kirkpatrick
Z:Public Domain
Z:Courtesy of the Cyber Hymnal™
%%score ( 1 2 ) ( 3 4 )
L:1/8
Q:1/4=75
M:6/8
K:F
V:1 treble 
V:2 treble 
V:3 bass 
V:4 bass 
V:1
 [FA][FA][FA] [FA]>[CG][CF] | [CF][CE][CF] [EG]3 | [EB][EB][EB] [EB]>[EA][EG] | %3
w: 1.~Saved to the ut- ter- most:|I am the Lord’s;|Je- sus my Sav- ior sal-|
w: 2.~Saved to the ut- ter- most:|Je- sus is near;|Keep- ing me safe- ly, He|
w: 3.~Saved to the ut- ter- most:|this I can say,|“Once all was dark- ness, but|
w: 4.~Saved to the ut- ter- most;|cheer- ful- ly sing|Loud hal- le- lu- ias to|
 [FA][FA][GB] [Ac]3 | [Fc][Fc][Fc] [Fc]>[GB][FA] | [Fd][Fd][Fd] [Fc]3 | F[EG][_EA] [DB]>[DA][DG] | %7
w: va- tion af- fords;|Gives me His Spir- it, a|wit- ness with- in,|Whis- pering of par- don, and|
w: cast- eth out fear;|Trust- ing His prom- is- es,|now I am blest;|Lean- ing up- on Him, how|
w: now it is day;|Beau- ti- ful vi- sions of|glo- ry I see,|Je- sus in bright- ness re-|
w: Je- sus my king;|Ran- somed and par- doned, re-|deemed by His blood,|Cleansed from un- right- eous- ness;|
 [EG][CF][CE] [CF]3 ||"^Refrain" [Fc]3 [Fd]3 | [Fc][FA][GB] [Ac]>[FA][CF] | [EG]3 [Ec]2 [Ec] | %11
w: sav- ing from sin.||||
w: sweet is my rest.||||
w: vealed un- to me.”||||
w: glo- ry to God!||||
 [D=B][FA][FB] [Ec]3 | [Fc]3 [Fd]3 | [Fc][FA][GB] [Ac]>[FA][CF] | [FB]>[FA][FG] [FA][FA][EG] | %15
w: ||||
w: ||||
w: ||||
w: ||||
 F3- F2 z |] %16
w: |
w: |
w: |
w: |
V:2
 x6 | x6 | x6 | x6 | x6 | x6 | F x5 | x6 || x6 | x6 | x6 | x6 | x6 | x6 | x6 | F3- F2 x |] %16
V:3
 [F,C][F,C][F,C] [F,C]>[F,B,][F,A,] | [F,A,][F,B,][F,A,] [C,C]3 | %2
w: ~ ~ ~ ~ ~ ~|~ ~ ~ ~|
 [C,G,][C,G,][C,G,] [C,G,]>[C,G,][C,C] | [F,C][F,C][F,C] [F,C]3 | %4
w: ~ ~ ~ ~ ~ ~|~ ~ ~ ~|
 [F,A,][F,A,][F,A,] [F,A,]>[F,B,][F,C] | [B,,B,][B,,B,][B,,B,] [F,A,]3 | %6
w: ~ ~ ~ ~ ~ ~|~ ~ ~ ~|
 [F,A,][F,B,][F,C] [B,,D]>[B,,C][B,,B,] | [C,B,][C,A,][C,G,] [F,A,]3 || [F,A,]3 [F,B,]3 | %9
w: ~ ~ ~ ~ ~ ~|~ ~ ~ ~|Saved, saved,|
 [F,A,][F,C][F,C] [F,C]>[F,C][F,A,] | [C,C]3 [C,G,]2 [C,G,] | G,G,G, [C,G,]3 | [F,A,]3 [F,B,]3 | %13
w: saved to the ut- ter- most;|Saved, saved by|pow- er di- vine;|Saved, saved,|
 [F,A,][F,C][F,C] [F,C]>[F,C][F,A,] | [B,,D]>[B,,D][B,,D] [C,C][C,C][C,B,] | %15
w: saved to the ut- ter- most:|Je- sus the Sav- ior is|
 [F,,F,A,]3- [F,,F,A,]2 z |] %16
w: mine! *|
V:4
 x6 | x6 | x6 | x6 | x6 | x6 | x6 | x6 || x6 | x6 | x6 | G,G,G, x3 | x6 | x6 | x6 | x6 |] %16

